modules/outlined-icons/icons/tablet.svg

<?xml version="1.0" encoding="utf-8"?>
<!-- Generator: Adobe Illustrator 16.0.0, SVG Export Plug-In . SVG Version: 6.00 Build 0)  -->
<!DOCTYPE svg PUBLIC "-//W3C//DTD SVG 1.1//EN" "http://www.w3.org/Graphics/SVG/1.1/DTD/svg11.dtd">
<svg version="1.1" id="Ebene_1" xmlns="http://www.w3.org/2000/svg" xmlns:xlink="http://www.w3.org/1999/xlink" x="0px" y="0px"
	 width="64px" height="64px" viewBox="0 0 64 64" enable-background="new 0 0 64 64" xml:space="preserve">
<g>
	<path d="M56,62V2c0-1.104-0.896-2-2-2H10C8.896,0,8,0.896,8,2v60c0,1.104,0.896,2,2,2h44C55.104,64,56,63.104,56,62z M52,60H12V4
		h40V60z"/>
	<path d="M30.58,52.59C30.21,52.96,30,53.479,30,54c0,0.52,0.21,1.04,0.59,1.42C30.96,55.79,31.479,56,32,56
		c0.52,0,1.04-0.21,1.42-0.59C33.79,55.04,34,54.52,34,54c0-0.521-0.21-1.04-0.59-1.41C32.67,51.84,31.33,51.84,30.58,52.59z"/>
	<path d="M27,12h10c1.104,0,2-0.896,2-2s-0.896-2-2-2H27c-1.104,0-2,0.896-2,2S25.896,12,27,12z"/>
</g>
</svg>

<svg xmlns="http://www.w3.org/2000/svg" width="64" height="64" viewBox="0 0 64 64"><path d="M56 62V2a2 2 0 0 0-2-2H10a2 2 0 0 0-2 2v60a2 2 0 0 0 2 2h44a2 2 0 0 0 2-2zm-4-2H12V4h40v56z"/><path d="M30.58 52.59c-.37.37-.58.889-.58 1.41 0 .52.21 1.04.59 1.42.37.37.889.58 1.41.58.52 0 1.04-.21 1.42-.59.37-.37.58-.89.58-1.41 0-.521-.21-1.04-.59-1.41-.74-.75-2.08-.75-2.83 0zM27 12h10a2 2 0 0 0 0-4H27a2 2 0 0 0 0 4z"/></svg>
